X:1
T:Title
%%score { 1 | 2 }
L:1/8
M:4/4
K:Ab
V:1 treble nm="Grand Piano"
V:2 bass 
V:1
 z4 z2[Q:1/4=100] EE | [CA]>[CA] [CA]>[DB] [Ec]2 [CA]>[EG] | [DF]>[FA] [FA]>F E2 z2 | %3
 [Ae]3- [Ae]/[EAc]/ [CEA]2 [EGB]2 |[M:3/4] [EAc]4 z2 |[M:1/4] EE | %6
[M:4/4] [CA]>[CA] [CA]>[DB] [Ec]2 [CA]>[EG] | [DF]>[FA] [FA]>F E2 z2 | %8
 [Ae]3- [Ae]/[Ac]/ [EA]2 [GB]2 |[M:3/4] A6 |[M:1/4] z2 |[M:4/4] e4 c<e z2 | [Ec]4 [CA]<[Ec] z2 | %13
 [CA]>[CA] [CA]>[DB] [Ec]2 [=DB]>[Dc] |[M:3/4] B4 z2 |[M:1/4] EE | %16
[M:4/4] [CA]>[CA] [CA]>[DB] [Ec]2 [CA]>[EG] | [DF]>[FA] [FA]>F E2 z2 | %18
 [Ae]3- [Ae]/[Ac]/ [EA]2 [GB]2 |[M:7/4] [EA]6 z2 z2 z4 |] %20
V:2
 z4 z2 E,[E,D] | [A,,E,]>[A,,E,] [A,,E,]>[A,,E,] [A,,A,]2 [A,,A,]>[A,,A,] | %2
 [D,A,]>[D,A,] [D,A,]>[D,A,D] [A,C]2 z2 | [E,C]3- [E,C]/E,/ E,2 E,2 |[M:3/4] A,4 z2 | %5
[M:1/4] E,[E,D] |[M:4/4] [A,,E,]>[A,,E,] [A,,E,]>[A,,E,] [A,,A,]2 [A,,A,]>[A,,A,] | %7
 [D,A,]>[D,A,] [D,A,]>[D,A,D] [A,C]2 z2 | [E,C]3- [E,C]/[E,E]/ [E,C]2 [E,D]2 | %9
[M:3/4][K:treble] [A,CE]6 |[M:1/4] z2 |[M:4/4] [A,CA]4 [A,E]<[A,CA] z2 | %12
 [A,,A,]4 [A,,E,]<[A,,A,] z2 | [A,,E,]>[A,,E,] [A,,E,]>[A,,E,] [A,,A,]2 [B,,A,]>[B,,A,] | %14
[M:3/4] [E,G,D]4 z2 |[M:1/4] E,[E,D] | %16
[M:4/4] [A,,E,]>[A,,E,] [A,,E,]>[A,,E,] [A,,A,]2 [A,,A,]>[A,,A,] | %17
 [D,A,]>[D,A,] [D,A,]>[D,A,D] [A,C]2 z2 | [E,C]3- [E,C]/[E,E]/ [E,C]2 [E,D]2 | %19
[M:7/4] [A,C]6 z2 z2 z4 |] %20

